X:1
T:Granpa's Ceili Band
M:4/4
R:Reel
C:Martin Mulhaire
K:G
|:GB (3BAB dB (3BAB|GB (3BcB ABGE|DEGA Bd (3ded|ea (3aba gedB|
GB (3BcB dB (3BAB|GABG GAGE|DEGA Bgfg|ecAF G4:||
|:dggf gfed|Bd (3ded Bdef|(3gfg af gfed|ea (3aba ea (3aba|
dggf gfed|Bd (3ded gdBd|(3cdc dB cBAG|FDEF G4:||
